svg/fluentui-system-icons/ic_fluent_arrow_clockwise_28_regular.svg

<svg width="28" height="28" viewBox="0 0 28 28" fill="none" xmlns="http://www.w3.org/2000/svg">
<path d="M19.8318 6.5C18.2217 5.24608 16.1983 4.5 14 4.5C8.7533 4.5 4.5 8.75329 4.5 14C4.5 19.2467 8.7533 23.5 14 23.5C19.2467 23.5 23.5 19.2467 23.5 14C23.5 13.5479 23.4697 13.3411 23.3993 12.861L23.399 12.8588C23.3389 12.449 23.6224 12.068 24.0322 12.0079C24.442 11.9478 24.823 12.2314 24.8831 12.6412L24.8849 12.6534C24.9568 13.1436 25 13.4384 25 14C25 20.0751 20.0751 25 14 25C7.92487 25 3 20.0751 3 14C3 7.92487 7.92487 3 14 3C16.6592 3 19.0985 3.94423 21 5.5144V3.75C21 3.33579 21.3358 3 21.75 3C22.1642 3 22.5 3.33579 22.5 3.75V7.25C22.5 7.66421 22.1642 8 21.75 8H18.25C17.8358 8 17.5 7.66421 17.5 7.25C17.5 6.83579 17.8358 6.5 18.25 6.5H19.8318Z" fill="#212121"/>
</svg>

<svg xmlns="http://www.w3.org/2000/svg" width="28" height="28"><path d="M19.832 6.5A9.457 9.457 0 0 0 14 4.5a9.5 9.5 0 1 0 9.5 9.5c0-.452-.03-.659-.1-1.139l-.001-.002a.75.75 0 1 1 1.484-.218l.002.012c.072.49.115.785.115 1.347 0 6.075-4.925 11-11 11S3 20.075 3 14 7.925 3 14 3c2.66 0 5.099.944 7 2.514V3.75a.75.75 0 0 1 1.5 0v3.5a.75.75 0 0 1-.75.75h-3.5a.75.75 0 0 1 0-1.5h1.582Z"/></svg>
